src/telerik-icons/solid/cell-split-vertically.svg

<?xml version="1.0" encoding="utf-8"?>
<svg xmlns="http://www.w3.org/2000/svg" width="512" height="512" viewBox="0 0 512 512">
  <path d="M32 448h416V32H32v416zm32-32V256h64v160H64zm160-160v64h-64v-64h64zm-64 160v-64h64v64h-64zm96 0V256h64v160h-64zm160 0h-64V256h64v160zM160 224v-64h64v64h-64zM416 64v160h-64V64h64zm-96 0v160h-64V64h64zm-96 0v64h-64V64h64zm-96 0v160H64V64h64z"/>
</svg>

<?xml version="1.0" encoding="utf-8"?>
<!-- Generator: Adobe Illustrator 19.2.1, SVG Export Plug-In . SVG Version: 6.00 Build 0)  -->
<svg xmlns="http://www.w3.org/2000/svg" width="512" height="512" viewBox="0 0 512 512">
<path d="M32,448h416V32H32V448z M64,416V256h64v160H64z M224,256v64h-64v-64H224z M160,416v-64h64v64H160z M256,416V256h64v160H256z
	 M416,416h-64V256h64V416z M160,224v-64h64v64H160z M416,64v160h-64V64H416z M320,64v160h-64V64H320z M224,64v64h-64V64H224z
	 M128,64v160H64V64H128z" />
</svg>
